X: 4281
T: PALL MALL
%R: reel, hornpipe
B: James Kerr "Merry Melodies" v.4 p.30 #281
Z: 2016 John Chambers <jc:trillian.mit.edu>
M: C|
L: 1/8
K: D
(AG) |\
FDFA d2(ef) | gfed c2A2 |\
[1 BAGB AGFA | G2E2E2 :|\
[2 defd efge | f2d2d2 |:\
(fg) |\
agfe dcBA |
B2G2 G2(ga) |\
bagf edcB | c2A2 A2(AG) |\
FDFA d2(ef) | gfed c2A2 |\
defd efge | f2d2d2 :|

%%sep 1 1 500
%%sep 1 1 500

